X:158
T:Cannock Chase
C:Charles Bolton
L:1/8
M:6/8
R:Jig
S:Colin Hume's website,  colinhume.com  - chords can also be printed below the stave.
Q:3/8=112
K:G
P:A
D |: "G"G2G "Em"G2G | "Am"ABG "D"FED | "G"G2G "D"ABc | "G"d3- "G7"d2d | "C"e2e "Am"cde |
[1"G"d2d "E7"B2d | "Am"c2c c2B | "A7"ABG "D7"FED :|2 "G"ded "E7"B2d | "Am"cdB "D7"AGF | "G"G3- "G7"GBd |
P:B
"C"e2e "D7"gfe | "G"d3- "Em"d2B | "Am"cBc "D"ABc | "G"d3 Bcd | "C"e2e gfe | "Bm"f2d "E"B2d |
"A"^cde "A7"ABc | "D"d3 "D7"=cBA || "G"G2G "Em"G2G | "Am"ABG "D"FED | "G"G2G "D"ABc |
"G"d3 "Gaug"^d3 | "C"ece "D7"gfe | "G"ded "E7"B2d | "Am"c2E "D7"FGA | "G"G3- G2 |]

